X: 169
M: 6/8
L: 1/8
K: C
(c/d/) | e c A (G>F) E | D d d d2 (c/d/) |
e c A (G>E) G | A c c c2 (c/d/) |
e c A G> F E | D f e {e}d2 (g/f/) |
e c A (G>E) G | A c c c2 ][ (e/d/) |
c e g c e g | c e g
(gf) (e/d/) | c e g c e g |
a d d Hd2 (e/d/) | ceg
c e g | c c' a Hg2 (g/f/) | e c A
(G>F) E | D d d d2 (g/f/) | e c A (GE) G |

